X: 4682
T: Boyne Hunt, The
R: reel
M: 4/4
K: Dmajor
|:A2FA DAFA|DAFA BE E2|A2FA DAFA|ABde fddB|
BA (3FGA D2 (3FGA|DAFA BE E2|BAFA D3B|ABde fddB:|
|:faaf a3f|g3a bgeg|faaf a3f|efde fdd2|
fa a2 a3f|g3a bgeg|f3e dedB|ABde fddB:|

